www/assets/icons/attach_email.svg

<svg xmlns="http://www.w3.org/2000/svg" width="24" height="24" viewBox="0 0 24 24" fill='currentColor'><path d="M21 10V4c0-1.1-.9-2-2-2H3c-1.1 0-1.99.9-1.99 2L1 16c0 1.1.9 2 2 2h11v-5c0-1.66 1.34-3 3-3zm-10 1L3 6V4l8 5 8-5v2z"/><path d="M21 14v4c0 1.1-.9 2-2 2s-2-.9-2-2v-4.5c0-.28.22-.5.5-.5s.5.22.5.5V18h2v-4.5a2.5 2.5 0 0 0-5 0V18c0 2.21 1.79 4 4 4s4-1.79 4-4v-4z"/></svg>

<svg width="24" height="24" viewBox="0 0 24 24" xmlns="http://www.w3.org/2000/svg" fill='currentColor'><path d="M21 10V4C21 2.9 20.1 2 19 2H3C1.9 2 1.01 2.9 1.01 4L1 16C1 17.1 1.9 18 3 18H14V13C14 11.34 15.34 10 17 10H21ZM11 11L3 6V4L11 9L19 4V6L11 11Z"/><path d="M21 14V18C21 19.1 20.1 20 19 20C17.9 20 17 19.1 17 18V13.5C17 13.22 17.22 13 17.5 13C17.78 13 18 13.22 18 13.5V18H20V13.5C20 12.12 18.88 11 17.5 11C16.12 11 15 12.12 15 13.5V18C15 20.21 16.79 22 19 22C21.21 22 23 20.21 23 18V14H21Z"/></svg>
